src/assets/svg/copy.svg

<svg viewBox="0 0 111.07 122.88">
  <style type="text/css">
    <![CDATA[
    .st0 {
      fill-rule: evenodd;
      clip-rule: evenodd;
    }
    ]]>
  </style>
  <g>
    <path class="st0"
      d="M97.67,20.81L97.67,20.81l0.01,0.02c3.7,0.01,7.04,1.51,9.46,3.93c2.4,2.41,3.9,5.74,3.9,9.42h0.02v0.02v75.28 v0.01h-0.02c-0.01,3.68-1.51,7.03-3.93,9.46c-2.41,2.4-5.74,3.9-9.42,3.9v0.02h-0.02H38.48h-0.01v-0.02 c-3.69-0.01-7.04-1.5-9.46-3.93c-2.4-2.41-3.9-5.74-3.91-9.42H25.1c0-25.96,0-49.34,0-75.3v-0.01h0.02 c0.01-3.69,1.52-7.04,3.94-9.46c2.41-2.4,5.73-3.9,9.42-3.91v-0.02h0.02C58.22,20.81,77.95,20.81,97.67,20.81L97.67,20.81z M0.02,75.38L0,13.39v-0.01h0.02c0.01-3.69,1.52-7.04,3.93-9.46c2.41-2.4,5.74-3.9,9.42-3.91V0h0.02h59.19 c7.69,0,8.9,9.96,0.01,10.16H13.4h-0.02v-0.02c-0.88,0-1.68,0.37-2.27,0.97c-0.59,0.58-0.96,1.4-0.96,2.27h0.02v0.01v3.17 c0,19.61,0,39.21,0,58.81C10.17,83.63,0.02,84.09,0.02,75.38L0.02,75.38z M100.91,109.49V34.2v-0.02h0.02 c0-0.87-0.37-1.68-0.97-2.27c-0.59-0.58-1.4-0.96-2.28-0.96v0.02h-0.01H38.48h-0.02v-0.02c-0.88,0-1.68,0.38-2.27,0.97 c-0.59,0.58-0.96,1.4-0.96,2.27h0.02v0.01v75.28v0.02h-0.02c0,0.88,0.38,1.68,0.97,2.27c0.59,0.59,1.4,0.96,2.27,0.96v-0.02h0.01 h59.19h0.02v0.02c0.87,0,1.68-0.38,2.27-0.97c0.59-0.58,0.96-1.4,0.96-2.27L100.91,109.49L100.91,109.49L100.91,109.49 L100.91,109.49z" />
  </g>
</svg>

<svg viewBox="0 0 112 123" fill="none" xmlns="http://www.w3.org/2000/svg">
  <path fill-rule="evenodd" clip-rule="evenodd"
    d="M97.67 20.81L97.68 20.83C101.38 20.84 104.72 22.34 107.14 24.76C109.54 27.17 111.04 30.5 111.04 34.18H111.06V34.2V109.48V109.49H111.04C111.03 113.17 109.53 116.52 107.11 118.95C104.7 121.35 101.37 122.85 97.69 122.85V122.87H97.67H38.48H38.47V122.85C34.78 122.84 31.43 121.35 29.01 118.92C26.61 116.51 25.11 113.18 25.1 109.5C25.1 83.54 25.1 60.16 25.1 34.2V34.19H25.12C25.13 30.5 26.64 27.15 29.06 24.73C31.47 22.33 34.79 20.83 38.48 20.82V20.8H38.5C58.22 20.81 77.95 20.81 97.67 20.81ZM0.02 75.38L0 13.39V13.38H0.02C0.03 9.69 1.54 6.34 3.95 3.92C6.36 1.52 9.69 0.02 13.37 0.01V0H13.39H72.58C80.27 0 81.48 9.96 72.59 10.16H13.4H13.38V10.14C12.5 10.14 11.7 10.51 11.11 11.11C10.52 11.69 10.15 12.51 10.15 13.38H10.17V13.39V16.56C10.17 36.17 10.17 55.77 10.17 75.37C10.17 83.63 0.02 84.09 0.02 75.38ZM100.91 109.49V34.2V34.18H100.93C100.93 33.31 100.56 32.5 99.96 31.91C99.37 31.33 98.56 30.95 97.68 30.95V30.97H97.67H38.48H38.46V30.95C37.58 30.95 36.78 31.33 36.19 31.92C35.6 32.5 35.23 33.32 35.23 34.19H35.25V34.2V109.48V109.5H35.23C35.23 110.38 35.61 111.18 36.2 111.77C36.79 112.36 37.6 112.73 38.47 112.73V112.71H38.48H97.67H97.69V112.73C98.56 112.73 99.37 112.35 99.96 111.76C100.55 111.18 100.92 110.36 100.92 109.49H100.91Z"
    fill="black" />
</svg>
